X:965
T:Bonnie Scotland
C:Joe Buchanan's Scottish Tome - Page 561.3
I:561 3
Z:Carl Allison
R:Waltz
L:1/4
M:3/4
K:G
B2 B | B2 A | G2 B, | D3 | E2 G | D2 G | B2 A | A3 |
B2 B | B2 A | G2 B, | D3 | E2 G | F2 A | G3 | G2 |
c2 d | e2 c | B2 c | d3 | A2 G | G2 A | B2 A | A3 |
B2 B | B2 A | G2 B, | D3 | E2 G | F2 A | G3 | G2 |]

